X: 423
T: Manzuizui baiyaya duigege xiao
L: 1/16
M: 2/4
K: Eb
B B B G2< e2 e [I:setbarnb 1]| 
f2B4G2 | 
c2 E2 B c e f | 
B8 | 
B B B G2< e2 e | 
f2B4G2 | 
c2 E2 B c e2 | 
E8 |]

@@@ Tune index: 9297
